svg/vpn.svg

<?xml version="1.0" encoding="UTF-8"?>
<svg xmlns="http://www.w3.org/2000/svg" xmlns:xlink="http://www.w3.org/1999/xlink" width="32" height="32" viewBox="0 0 32 32">
<path fill-rule="nonzero" fill="rgb(0%, 0%, 0%)" fill-opacity="1" d="M 2.558594 4.480469 C 1.5 4.480469 0.640625 5.339844 0.640625 6.398438 L 0.640625 25.601562 C 0.640625 26.660156 1.5 27.519531 2.558594 27.519531 L 29.441406 27.519531 C 30.5 27.519531 31.359375 26.660156 31.359375 25.601562 L 31.359375 6.398438 C 31.355469 5.339844 30.5 4.480469 29.441406 4.480469 Z M 4.480469 12.160156 L 5.976562 12.160156 L 8.070312 18.238281 L 8.164062 18.238281 L 10.238281 12.160156 L 11.679688 12.160156 L 8.917969 19.839844 L 7.273438 19.839844 Z M 13.121094 12.160156 L 16.421875 12.160156 C 17.976562 12.160156 19.039062 13.167969 19.039062 14.714844 C 19.039062 16.238281 17.9375 17.28125 16.363281 17.28125 L 14.398438 17.28125 L 14.398438 19.839844 L 13.121094 19.839844 Z M 20.480469 12.160156 L 21.675781 12.160156 L 25.460938 17.382812 L 25.601562 17.382812 L 25.601562 12.160156 L 26.878906 12.160156 L 26.878906 19.839844 L 25.6875 19.839844 L 21.902344 14.613281 L 21.761719 14.613281 L 21.761719 19.839844 L 20.480469 19.839844 Z M 14.398438 13.308594 L 14.398438 16.140625 L 16.046875 16.140625 C 17.042969 16.140625 17.625 15.628906 17.625 14.714844 C 17.625 13.773438 17.058594 13.308594 15.382812 13.308594 Z M 14.398438 13.308594 "/>
</svg>

<svg role="img" viewBox="0 0 32 32" height="32" width="32" xmlns="http://www.w3.org/2000/svg"><path d="M2.559 4.48A1.92 1.92 0 0 0 .64 6.398v19.204c0 1.058.859 1.918 1.918 1.918H29.44c1.059 0 1.918-.86 1.918-1.918V6.398A1.921 1.921 0 0 0 29.44 4.48Zm1.921 7.68h1.497l2.093 6.078h.094l2.074-6.078h1.442l-2.762 7.68H7.273Zm8.641 0h3.3c1.556 0 2.618 1.008 2.618 2.555 0 1.523-1.102 2.566-2.676 2.566h-1.965v2.559h-1.277Zm7.36 0h1.195l3.785 5.223h.14V12.16h1.278v7.68h-1.192l-3.785-5.227h-.14v5.227H20.48Zm-6.083 1.149v2.832h1.649c.996 0 1.578-.512 1.578-1.426 0-.942-.566-1.406-2.242-1.406Zm0 0"/></svg>
